public/assets/standards/sci/resource-spec-icon.svg

<svg width="48" height="48" viewBox="0 0 48 48" fill="none" xmlns="http://www.w3.org/2000/svg">
<g clip-path="url(#clip0_149_2684)">
<path d="M42.6 45.65C42.42 45.47 42.19 45.36 41.95 45.34C40.05 45.15 38.57 43.5 38.57 41.6L38.6 13.71C38.6 9.67001 35.32 6.39001 31.28 6.39001H1.55C1.13 6.39001 0.749997 6.65001 0.579997 7.06001C0.409997 7.45001 0.509997 7.93001 0.819997 8.24001C0.989997 8.41001 1.22 8.52002 1.46 8.55001C3.17 8.73002 4.61 10.14 4.79 11.77L4.83 40.18C4.83 44.21 8.12 47.5 12.15 47.5H41.86C42.28 47.5 42.66 47.24 42.84 46.83C43 46.44 42.91 45.96 42.6 45.65Z" fill="#006D68"/>
<path d="M47.17 39.77C46.99 39.59 46.75 39.47 46.5 39.45C44.62 39.26 43.15 37.63 43.15 35.75L43.18 7.86C43.18 3.8 39.88 0.5 35.82 0.5H6.10003C5.66003 0.5 5.27003 0.77 5.09003 1.2C4.92003 1.61 5.02003 2.1 5.34003 2.42C5.52003 2.6 5.76003 2.71 6.01003 2.74C7.71003 2.92 9.13003 4.31 9.31003 5.93L9.35003 34.34C9.35003 38.39 12.65 41.69 16.71 41.69H46.42C46.86 41.69 47.25 41.42 47.43 41C47.6 40.59 47.5 40.1 47.18 39.78L47.17 39.77Z" fill="#A5C352"/>
<path d="M25.28 31.64C24.76 31.64 24.26 31.43 23.89 31.05L16.55 23.38C15.82 22.61 15.85 21.4 16.61 20.67C17.38 19.94 18.59 19.97 19.32 20.73L24.83 26.49L32.87 11.55C33.37 10.62 34.54 10.27 35.47 10.77C36.4 11.27 36.75 12.44 36.25 13.37L26.96 30.64C26.67 31.18 26.14 31.55 25.53 31.63C25.44 31.64 25.36 31.65 25.27 31.65L25.28 31.64Z" fill="white"/>
</g>
<defs>
<clipPath id="clip0_149_2684">
<rect width="48" height="48" fill="white"/>
</clipPath>
</defs>
</svg>

<svg xmlns="http://www.w3.org/2000/svg" width="48" height="48" fill="none" viewBox="0 0 48 48"><g clip-path="url(#a)"><path fill="#006d68" d="M42.6 45.65c-.18-.18-.41-.29-.65-.31-1.9-.19-3.38-1.84-3.38-3.74l.03-27.89c0-4.04-3.28-7.32-7.32-7.32H1.55c-.42 0-.8.26-.97.67a1.085 1.085 0 0 0 .88 1.49c1.71.18 3.15 1.59 3.33 3.22l.04 28.41c0 4.03 3.29 7.32 7.32 7.32h29.71c.42 0 .8-.26.98-.67.16-.39.07-.87-.24-1.18"/><path fill="#a5c352" d="M47.17 39.77c-.18-.18-.42-.3-.67-.32-1.88-.19-3.35-1.82-3.35-3.7l.03-27.89c0-4.06-3.3-7.36-7.36-7.36H6.1c-.44 0-.83.27-1.01.7-.17.41-.07.9.25 1.22.18.18.42.29.67.32 1.7.18 3.12 1.57 3.3 3.19l.04 28.41c0 4.05 3.3 7.35 7.36 7.35h29.71c.44 0 .83-.27 1.01-.69.17-.41.07-.9-.25-1.22z"/><path fill="#fff" d="M25.28 31.64c-.52 0-1.02-.21-1.39-.59l-7.34-7.67c-.73-.77-.7-1.98.06-2.71.77-.73 1.98-.7 2.71.06l5.51 5.76 8.04-14.94c.5-.93 1.67-1.28 2.6-.78s1.28 1.67.78 2.6l-9.29 17.27c-.29.54-.82.91-1.43.99-.09.01-.17.02-.26.02z"/></g><defs><clipPath id="a"><path fill="#fff" d="M0 0h48v48H0z"/></clipPath></defs></svg>
